img/icons/location/building.svg

<svg xmlns="http://www.w3.org/2000/svg" viewBox="0 0 40 48"><defs><style>.cls-1{fill:#231f20}</style></defs><g id="Layer_2" data-name="Layer 2"><g id="Icons"><g id="Location"><g id="Building"><path class="cls-1" d="M23 10h-6v10h6zm-2 8h-2v-6h2zm2 6h-6v10h6zm-2 8h-2v-6h2zm-7-22H8v10h6zm-2 8h-2v-6h2zm20-8h-6v10h6zm-2 8h-2v-6h2zm-16 6H8v10h6zm-2 8h-2v-6h2zm20-8h-6v10h6zm-2 8h-2v-6h2z"/><path class="cls-1" d="M40 0H0v6h2v35a7 7 0 007 7h22a7 7 0 007-7V6h2zM23 46h-6v-6h6zm13-5a5 5 0 01-5 5h-6v-8H15v8H9a5 5 0 01-5-5V6h32zm2-37H2V2h36z"/></g></g></g></g></svg>

<svg xmlns="http://www.w3.org/2000/svg" viewBox="0 0 40 48"><defs><style>.cls-1{fill:#231f20;}</style></defs><title>Building</title><g id="Layer_2" data-name="Layer 2"><g id="Icons"><g id="Location"><g id="Building"><path class="cls-1" d="M23,10H17V20h6Zm-2,8H19V12h2Z"/><path class="cls-1" d="M23,24H17V34h6Zm-2,8H19V26h2Z"/><path class="cls-1" d="M14,10H8V20h6Zm-2,8H10V12h2Z"/><path class="cls-1" d="M32,10H26V20h6Zm-2,8H28V12h2Z"/><path class="cls-1" d="M14,24H8V34h6Zm-2,8H10V26h2Z"/><path class="cls-1" d="M32,24H26V34h6Zm-2,8H28V26h2Z"/><path class="cls-1" d="M40,0H0V6H2V41a7,7,0,0,0,7,7H31a7,7,0,0,0,7-7V6h2ZM23,46H17V40h6Zm13-5a5,5,0,0,1-5,5H25V38H15v8H9a5,5,0,0,1-5-5V6H36ZM38,4H2V2H38Z"/></g></g></g></g></svg>
